src/components/Icon/logo.svg

<svg width="119" height="126" viewBox="0 0 119 126">
  <g fill="#FF5722">
    <path d="M46.441623,69.1971241 C45.1301271,69.5469105 43.7750441,69.7262798 42.4100652,69.727875 C40.5658764,69.7262688 38.7365845,69.3983164 37.0071522,68.75925 C33.1337547,67.3516172 29.9922594,64.4456108 28.2925217,60.697875 C28.281152,60.6729516 28.2702052,60.6479437 28.2596784,60.6228593 L17.5261522,37.130625 C16.9232613,35.8113548 17.5062158,34.2541452 18.8282174,33.6525 C20.150219,33.0508548 21.7106526,33.6326048 22.3135435,34.951875 L33.0812346,58.5188854 C33.0816714,58.5198399 33.0821077,58.5207947 33.0825435,58.52175 C33.0833077,58.5234219 33.08407,58.5250943 33.0848304,58.5267673 C34.2066154,60.9935245 36.2763922,62.9057902 38.827413,63.832125 C41.4105,64.782375 44.2198043,64.672125 46.7423913,63.525 C51.8923073,61.1818652 54.2166857,55.17467 51.9730228,50.0798804 C51.9523809,50.0403049 51.9326364,50.0000068 51.9138261,49.959 L41.1474565,26.39175 C40.5445657,25.0717549 41.128109,23.5139578 42.450837,22.9123126 C43.7735649,22.3106674 45.3345874,22.893005 45.9374783,24.213 L56.6460429,47.6537167 C56.6671349,47.6942617 56.687293,47.7355692 56.7064783,47.777625 C59.8783624,54.7244204 57.4071702,62.836264 51.2277072,67.0152942 L76.4847174,122.285625 C76.8561597,123.098271 76.7880376,124.043635 76.3039026,124.794883 C75.8197676,125.546131 74.9860634,126.00016 74.0910217,126 C73.0596444,126.001213 72.1227168,125.400806 71.6946957,124.464375 L46.441623,69.1971241 Z M42.5021304,56.865375 C41.4717054,56.8655586 40.5360612,56.2653158 40.1084348,55.32975 L29.3394348,31.7625 C28.7365439,30.4432298 29.3194984,28.8860202 30.6415,28.284375 C31.9635016,27.6827298 33.5239352,28.2644798 34.1268261,29.58375 L44.8958261,53.151 C45.2672684,53.9636455 45.1991463,54.9090101 44.7150113,55.660258 C44.2308763,56.4115059 43.3971721,56.8655345 42.5021304,56.865375 L42.5021304,56.865375 Z"/>
    <path d="M100.30785,46.742067 L94.9178134,58.5388344 C94.9079768,58.5621141 94.8977856,58.5852967 94.8872391,58.608375 C92.2988913,64.273125 86.6566087,67.622625 80.7486522,67.622625 C79.3896375,67.6222243 78.0403343,67.4448198 76.734289,67.0977169 L51.4876957,122.3775 C51.0596745,123.313931 50.1227469,123.914338 49.0913696,123.913125 C48.1963279,123.913285 47.3626237,123.459256 46.8784887,122.708008 C46.3943537,121.95676 46.3262316,121.011396 46.6976739,120.19875 L71.9465671,64.9219962 C69.2947994,63.1326905 67.2401171,60.5578862 66.0945,57.5295 C64.6181704,53.6895363 64.7556742,49.4177447 66.475913,45.68025 C66.4915346,45.6460663 66.507799,45.6123778 66.5246855,45.5791922 L72.3154783,32.8965 C72.4090256,32.6965913 72.5246236,32.5139238 72.6580423,32.3500539 C76.6306314,25.619059 85.2057707,22.841927 92.5408913,26.173875 C99.8615242,29.505265 103.389292,37.7679673 100.930038,45.1665506 C100.892446,45.3891008 100.825759,45.6085936 100.729435,45.819375 L100.360285,46.6273053 C100.348387,46.6537619 100.336408,46.6802019 100.324348,46.706625 C100.31893,46.718493 100.31343,46.7303072 100.30785,46.742067 Z M95.5045942,44.5980375 C95.5141708,44.5754286 95.5240812,44.5529138 95.5343261,44.5305 C97.8727826,39.4065 95.5501087,33.3165 90.3576304,30.951375 C85.1651522,28.58625 79.0336087,30.841125 76.6977826,35.959875 C76.6974837,35.9605137 76.6971846,35.9611523 76.6968852,35.9617907 L71.2659348,47.856375 C71.2550438,47.8802719 71.2438216,47.9039505 71.2322749,47.9274064 C70.128079,50.3854179 70.0517138,53.132574 71.013413,55.671 C71.9445626,58.1297619 73.7782266,60.1377558 76.1353718,61.292139 C76.3428314,61.3568601 76.5415336,61.4470056 76.7267902,61.5604447 C81.8369834,63.7019022 87.7573461,61.4733729 90.072044,56.4899973 C90.0810211,56.468914 90.0902889,56.4479131 90.0998478,56.427 L95.5045942,44.5980375 Z"/>
    <path d="M59.5,116.977875 C27.1824783,116.977875 0.891282609,90.741 0.891282609,58.49025 C0.891282609,26.2395 27.1824783,0 59.5,0 C91.8175217,0 118.108717,26.236875 118.108717,58.487625 C118.108717,90.738375 91.8175217,116.977875 59.5,116.977875 Z M59.5,5.25 C30.0838478,5.25 6.15215217,29.13225 6.15215217,58.487625 C6.15215217,87.845625 30.0838478,111.72525 59.5,111.72525 C88.9187826,111.72525 112.847848,87.843 112.847848,58.487625 C112.847848,29.13225 88.9187826,5.25 59.5,5.25 Z"/>
  </g>
</svg>

<svg width="119" height="126" viewBox="0 0 119 126"><g fill="#FF5722"><path d="M46.442 69.197c-1.312.35-2.667.53-4.032.53a15.627 15.627 0 0 1-5.403-.968 15.307 15.307 0 0 1-8.747-8.136L17.526 37.13a2.623 2.623 0 0 1 1.302-3.478 2.633 2.633 0 0 1 3.486 1.299L33.08 58.519a2.662 2.662 0 0 1 .004.008 10.09 10.09 0 0 0 5.742 5.305c2.584.95 5.393.84 7.915-.307 5.15-2.343 7.475-8.35 5.231-13.445l-.06-.121-10.766-23.567a2.624 2.624 0 0 1 1.304-3.48 2.634 2.634 0 0 1 3.486 1.301l10.709 23.44c.021.041.041.083.06.125 3.172 6.946.701 15.058-5.478 19.237l25.257 55.27a2.62 2.62 0 0 1-.181 2.51A2.632 2.632 0 0 1 74.09 126a2.63 2.63 0 0 1-2.396-1.536L46.442 69.197zm-3.94-12.332a2.63 2.63 0 0 1-2.394-1.535L29.34 31.763a2.623 2.623 0 0 1 1.303-3.479 2.633 2.633 0 0 1 3.485 1.3L44.896 53.15a2.62 2.62 0 0 1-.181 2.51 2.632 2.632 0 0 1-2.213 1.204z"/><path d="M100.308 46.742l-5.39 11.797-.03.07c-2.59 5.664-8.231 9.014-14.14 9.014-1.358 0-2.708-.178-4.014-.525l-25.246 55.28a2.63 2.63 0 0 1-2.397 1.535 2.632 2.632 0 0 1-2.213-1.205 2.62 2.62 0 0 1-.18-2.51l25.249-55.276a15.561 15.561 0 0 1-5.853-7.392 15.249 15.249 0 0 1 .43-11.95l5.791-12.683c.094-.2.21-.383.343-.547 3.973-6.73 12.548-9.508 19.883-6.176 7.32 3.331 10.848 11.594 8.389 18.993a2.62 2.62 0 0 1-.2.652l-.37.808a15.662 15.662 0 0 1-.052.115zm-4.803-2.144l.03-.067c2.338-5.124.015-11.215-5.177-13.58-5.193-2.365-11.324-.11-13.66 5.009l-.001.002-5.431 11.894-.034.071a10.064 10.064 0 0 0-.219 7.744 10.337 10.337 0 0 0 5.122 5.621c.208.065.407.155.592.268 5.11 2.142 11.03-.087 13.345-5.07a2.63 2.63 0 0 1 .028-.063l5.405-11.829z"/><path d="M59.5 116.978C27.182 116.978.891 90.74.891 58.49S27.182 0 59.5 0s58.609 26.237 58.609 58.488c0 32.25-26.291 58.49-58.609 58.49zm0-111.728c-29.416 0-53.348 23.882-53.348 53.238 0 29.358 23.932 53.237 53.348 53.237 29.419 0 53.348-23.882 53.348-53.237 0-29.356-23.93-53.238-53.348-53.238z"/></g></svg>
